workspaces/osm/styles/symbols/tower_cantilever_communication.svg

<svg xmlns="http://www.w3.org/2000/svg" width="14" height="14" viewBox="0 0 14 14">
  <path d="M 4 0.40625 C 2.23276 1.1855669 0.96875 2.9521023 0.96875 5 C 0.96875 7.047898 2.23276 8.814433 4 9.59375 L 4 8.4375 C 2.80447 7.746709 2 6.4881502 2 5 C 2 3.5118498 2.80447 2.2532914 4 1.5625 L 4 0.40625 z M 10 0.40625 L 10 1.5625 C 11.19553 2.2532914 12 3.5118498 12 5 C 12 6.4881502 11.19553 7.746709 10 8.4375 L 10 9.59375 C 11.76724 8.814433 13.03125 7.047898 13.03125 5 C 13.03125 2.9521023 11.76724 1.1855669 10 0.40625 z M 5 2.1875 C 3.842954 2.6043642 3 3.7033306 3 5 C 3 6.2966694 3.842954 7.395636 5 7.8125 L 5 6.71875 C 4.403081 6.3740292 4 5.7435697 4 5 C 4 4.2564303 4.403081 3.6259708 5 3.28125 L 5 2.1875 z M 9 2.1875 L 9 3.28125 C 9.596919 3.6259708 10 4.2564303 10 5 C 10 5.7435697 9.596919 6.3740292 9 6.71875 L 9 7.8125 C 10.157046 7.395636 11 6.2966694 11 5 C 11 3.7033306 10.157046 2.6043642 9 2.1875 z M 7 4 C 6.4022075 4 6 4.469217 6 5 L 6 11 L 5 11 L 5 12 L 3 12 L 3 14 L 11 14 L 11 12 L 9 12 L 9 11 L 8 11 L 8 5 C 8 4.503906 7.597793 4 7 4 z"/>
</svg>

<svg width="14" height="14" version="1.1" viewBox="0 0 14 14" xmlns="http://www.w3.org/2000/svg"><path d="m4 0.40625c-1.6537 0.71501-2.8714 2.3628-3.0128 4.1662-0.15712 1.634 0.58196 3.3024 1.8629 4.3198 0.35025 0.283 0.7378 0.5199 1.1499 0.70156v-1.1562c-1.2157-0.68261-2.0201-2.0388-2-3.4375-0.020103-1.3987 0.78426-2.7549 2-3.4375v-1.1562zm6 0v1.1562c1.2157 0.68261 2.0201 2.0388 2 3.4375 0.0201 1.3987-0.78426 2.7549-2 3.4375v1.1562c1.6537-0.71501 2.8714-2.3628 3.0128-4.1662 0.15712-1.634-0.58196-3.3024-1.8629-4.3198-0.35025-0.283-0.7378-0.5199-1.1499-0.70156zm-5 1.7812c-1.1839 0.40904-2.0444 1.6141-1.9994 2.8731 0.0083031 1.2173 0.85556 2.3549 1.9994 2.7519v-1.0938c-0.79686-0.43566-1.1979-1.4539-0.909-2.3155 0.14672-0.4714 0.4815-0.8773 0.909-1.122v-1.0938zm4 0v1.0938c0.79686 0.43566 1.1979 1.4539 0.909 2.3155-0.14672 0.4714-0.4815 0.8773-0.909 1.122v1.0938c1.1839-0.40904 2.0444-1.6141 1.9994-2.8731-0.010524-1.2217-0.85246-2.3508-1.9994-2.7519zm-2 1.8125c-0.56166-0.025562-1.0453 0.49984-1 1.0545v5.9455h-1v1h-2v2h8v-2h-2v-1h-1c-7.814e-4 -2.0155 0.0015628-4.031-0.001172-6.0465-0.020858-0.5154-0.47682-0.96708-0.99883-0.95348z"/></svg>
